src/icons/svg/discord.svg

<svg width="20" height="20" fill="none" xmlns="http://www.w3.org/2000/svg"><path d="M7.4 3.308a14.545 14.545 0 0 0-3.098.957c-.173.076-.333.164-.357.195a23.86 23.86 0 0 0-.391.64c-1.212 2.03-1.898 4.054-2.14 6.317-.063.595-.083 2.01-.036 2.659l.029.392.413.291a14.675 14.675 0 0 0 3.636 1.853l.339.117.164-.239c.209-.304.534-.845.669-1.112l.104-.206-.258-.106c-.261-.108-1.06-.508-1.159-.58-.048-.035-.031-.058.128-.181l.182-.14.265.116c2.622 1.153 5.488 1.172 8.096.053l.39-.168.182.14c.158.122.175.145.127.18-.099.073-.898.472-1.16.58a1.484 1.484 0 0 0-.258.122c0 .023.447.814.553.979.053.082.161.243.239.357l.142.207.341-.119a14.232 14.232 0 0 0 3.683-1.886c.269-.19.375-.284.375-.333 0-.037.017-.397.037-.8a14.748 14.748 0 0 0-.796-5.526 16.983 16.983 0 0 0-1.693-3.456l-.131-.206-.467-.2a14.226 14.226 0 0 0-2.679-.84l-.445-.092-.231.481-.231.482-.107-.018c-.405-.068-.759-.092-1.624-.107-.92-.016-1.575.017-2.116.107-.099.017-.102.012-.259-.342a5.356 5.356 0 0 0-.233-.478c-.074-.118-.077-.119-.225-.09m.347 5.737c.413.204.744.627.87 1.112.064.246.064.741-.001.994-.13.51-.452.931-.871 1.138a1.042 1.042 0 0 1-.54.138c-.476.022-.815-.126-1.166-.51-.85-.93-.482-2.576.661-2.957.14-.046.256-.058.493-.048.275.011.336.026.554.133m5.545-.083c.553.172.963.662 1.094 1.306.187.924-.3 1.862-1.092 2.103-.346.105-.709.08-1.016-.07-.423-.208-.767-.649-.894-1.15a2.579 2.579 0 0 1-.014-.924c.124-.599.633-1.168 1.155-1.291.217-.051.557-.04.767.026" fill="#19191C" fill-rule="evenodd"/></svg>

<svg width="20" height="20" viewBox="0 0 20 20" fill="none" xmlns="http://www.w3.org/2000/svg"><path d="M7.400 3.308 C 6.266 3.532,5.249 3.846,4.302 4.265 C 4.129 4.341,3.969 4.429,3.945 4.460 C 3.922 4.491,3.746 4.779,3.554 5.100 C 2.342 7.130,1.656 9.154,1.414 11.417 C 1.351 12.012,1.331 13.427,1.378 14.076 L 1.407 14.468 1.820 14.759 C 2.916 15.531,4.141 16.155,5.456 16.612 L 5.795 16.729 5.959 16.490 C 6.168 16.186,6.493 15.645,6.628 15.378 L 6.732 15.172 6.474 15.066 C 6.213 14.958,5.414 14.558,5.315 14.486 C 5.267 14.451,5.284 14.428,5.443 14.305 L 5.625 14.165 5.890 14.281 C 8.512 15.434,11.378 15.453,13.986 14.334 L 14.376 14.166 14.558 14.306 C 14.716 14.428,14.733 14.451,14.685 14.486 C 14.586 14.559,13.787 14.958,13.525 15.066 C 13.383 15.125,13.267 15.179,13.267 15.188 C 13.267 15.211,13.714 16.002,13.820 16.167 C 13.873 16.249,13.981 16.410,14.059 16.524 L 14.201 16.731 14.542 16.612 C 15.914 16.136,17.054 15.552,18.225 14.726 C 18.494 14.536,18.600 14.442,18.600 14.393 C 18.600 14.356,18.617 13.996,18.637 13.593 C 18.729 11.740,18.454 9.828,17.841 8.067 C 17.443 6.923,16.852 5.717,16.148 4.611 L 16.017 4.405 15.550 4.205 C 14.707 3.844,13.797 3.558,12.871 3.365 L 12.426 3.273 12.195 3.754 L 11.964 4.236 11.857 4.218 C 11.452 4.150,11.098 4.126,10.233 4.111 C 9.313 4.095,8.658 4.128,8.117 4.218 C 8.018 4.235,8.015 4.230,7.858 3.876 C 7.771 3.678,7.666 3.463,7.625 3.398 C 7.551 3.280,7.548 3.279,7.400 3.308 M7.747 9.045 C 8.160 9.249,8.491 9.672,8.617 10.157 C 8.681 10.403,8.681 10.898,8.616 11.151 C 8.486 11.661,8.164 12.082,7.745 12.289 C 7.527 12.397,7.456 12.415,7.205 12.427 C 6.729 12.449,6.390 12.301,6.039 11.917 C 5.189 10.987,5.557 9.341,6.700 8.960 C 6.840 8.914,6.956 8.902,7.193 8.912 C 7.468 8.923,7.529 8.938,7.747 9.045 M13.292 8.962 C 13.845 9.134,14.255 9.624,14.386 10.268 C 14.573 11.192,14.086 12.130,13.294 12.371 C 12.948 12.476,12.585 12.451,12.278 12.301 C 11.855 12.093,11.511 11.652,11.384 11.151 C 11.325 10.919,11.318 10.478,11.370 10.227 C 11.494 9.628,12.003 9.059,12.525 8.936 C 12.742 8.885,13.082 8.896,13.292 8.962 " fill="#19191C" stroke="none" fill-rule="evenodd"></path></svg>
